symbols/web/output/materialsymbolsoutlined/output_wght600_48px.svg

<svg xmlns="http://www.w3.org/2000/svg" height="48" width="48"><path d="M9.25 42.7q-1.6 0-2.775-1.175Q5.3 40.35 5.3 38.75V9.25q0-1.65 1.175-2.825Q7.65 5.25 9.25 5.25h29.5q1.65 0 2.825 1.175Q42.75 7.6 42.75 9.25v4.2h-4v-4.2H9.25v29.5h29.5v-4.2h4v4.2q0 1.6-1.175 2.775Q40.4 42.7 38.75 42.7Zm25.1-9.05-2.8-2.75L36.4 26H18.6v-4h17.8l-4.85-4.9 2.8-2.75L44 24Z"/></svg>

<svg xmlns="http://www.w3.org/2000/svg" height="48" width="48"><path d="M9.25 42.7Q7.65 42.7 6.475 41.525Q5.3 40.35 5.3 38.75V9.25Q5.3 7.6 6.475 6.425Q7.65 5.25 9.25 5.25H38.75Q40.4 5.25 41.575 6.425Q42.75 7.6 42.75 9.25V13.45H38.75V9.25Q38.75 9.25 38.75 9.25Q38.75 9.25 38.75 9.25H9.25Q9.25 9.25 9.25 9.25Q9.25 9.25 9.25 9.25V38.75Q9.25 38.75 9.25 38.75Q9.25 38.75 9.25 38.75H38.75Q38.75 38.75 38.75 38.75Q38.75 38.75 38.75 38.75V34.55H42.75V38.75Q42.75 40.35 41.575 41.525Q40.4 42.7 38.75 42.7ZM34.35 33.65 31.55 30.9 36.4 26H18.6V22H36.4L31.55 17.1L34.35 14.35L44 24Z"/></svg>
